build/assets/fonts/b6a651d2cd0063d0e83b505c40f24dd7.svg

<svg width="100" height="60" viewBox="0 0 100 60" version="1.1" xmlns="http://www.w3.org/2000/svg" xmlns:xlink="http://www.w3.org/1999/xlink"><title>AliPay-dark</title><desc>Created with Sketch.</desc><g id="Dark-Payment-badges" stroke="none" stroke-width="1" fill="none" fill-rule="evenodd" transform="translate(-130.000000, -689.000000)"><g id="AliPay-dark" transform="translate(130.000000, 689.000000)"><rect id="Rectangle" fill="#003F96" x="0" y="0" width="100" height="60" rx="4"/><path d="M70.7390422,18 L69.8438631,18.0696587 C69.8438631,18.0696587 68.9142542,18.2786362 68.9142542,18.6965913 L68.9142542,20.0897755 L64.8859493,20.2290937 L64.8859493,19.4628429 L63.0267309,19.4628429 C63.0267309,19.4628429 61.1675133,19.602161 61.1675133,20.159435 L61.1675133,25.2445557 L68.9142542,25.2445557 L68.9142542,28.7275155 L63.5776107,28.7275155 L63.5776107,30.1206989 L68.9142542,30.1206989 L68.9142542,38.0966761 L72.8736997,37.678721 L72.8736997,30.1206989 L78.5546433,30.1206989 L78.5546433,28.7275155 L72.8736997,28.7275155 L72.8736997,25.2445557 L79.5531115,25.2445557 L79.5531115,24.5479636 L79.7252615,24.5479636 C79.7252615,24.5479636 80.2417109,24.5479636 80.5515805,23.7120534 L80.8614501,21.4133003 C80.8614501,21.4133003 80.8270204,19.7414799 79.0710926,19.7414799 L72.8736997,19.9504574 L72.8736997,18 L70.7390422,18 L70.7390422,18 Z M76.8675749,21.2043228 C76.8675749,21.2043228 77.418454,21.1694927 77.4528844,21.761596 L77.1774445,23.8862016 L64.8859493,23.8862016 L64.8859493,21.5874478 L68.9142542,21.482959 L68.9142542,21.5177891 L72.8736997,21.3436409 L76.8675749,21.2043228 L76.8675749,21.2043228 Z" id="path215" fill="#FFF"/><path d="M46.6725004,28.7275155 L47.9464085,30.2251877 L49.4268971,31.5487125 C49.4268971,31.5487125 49.8400566,31.9666676 50.2532161,31.5487125 L51.6992743,30.2251877 L52.9731832,28.7275155 C52.9731832,28.7275155 53.4207723,28.3443897 52.9731832,27.8567752 L51.6992743,26.3939323 L50.2532161,25.1052376 C50.2532161,25.1052376 49.8400566,24.6872825 49.4268971,25.1052376 L47.980839,26.3939323 L46.6725004,27.8567752 C46.6725004,27.8567752 46.2937706,28.3443897 46.6725004,28.7275155" id="path971" fill="#EC6C00"/><path d="M79.7252615,33.3250217 C79.7252615,33.3250217 79.966271,33.0115554 79.7252615,32.6632597 L78.7267926,31.5487125 L77.6250337,30.5734841 C77.6250337,30.5734841 77.3151641,30.2600178 76.9708648,30.5734841 L75.8691059,31.5487125 L74.9050674,32.6632597 C74.9050674,32.6632597 74.6296275,33.0115554 74.9050674,33.3250217 L75.8691059,34.4395689 L76.9708648,35.4147972 C76.9708648,35.4147972 77.3151641,35.7630937 77.6250337,35.4147972 L78.7267926,34.4395689 L79.7252615,33.3250217" id="path973" fill="#EC6C00"/><path d="M20.6778808,27.0556943 L32.4873571,27.0556943 C32.4873571,27.0556943 32.1430578,28.4140492 31.2823084,30.1206989 C31.2823084,30.1206989 29.8018205,33.0463855 27.5294426,35.2406498 C27.5294426,35.2406498 23.2601283,39.2808828 20.5057315,39.2808828 C20.5057315,39.2808828 18.4743636,39.2808828 17.1660252,38.514632 C17.1660252,38.514632 15.547817,37.5045735 15.547817,35.4147972 C15.547817,35.4147972 15.547817,32.6632597 19.7138421,31.8621788 C19.7138421,31.8621788 17.0283053,31.6880306 15.616677,33.1160441 C15.616677,33.1160441 14.3083385,34.3699095 14.3083385,36.5641745 C14.3083385,36.5641745 14.3083385,38.6539501 16.2019862,39.9078154 C16.2019862,39.9078154 17.8890543,41.057192 20.2991515,41.0223626 L20.8500308,41.057192 C20.8500308,41.057192 25.5325054,40.8133851 29.8706799,37.1562771 C29.8706799,37.1562771 33.5891159,34.0216138 35.4483336,29.5285956 C35.4483336,29.5285956 36.0336431,28.1354122 36.3435127,26.742228 L36.5500932,25.6625108 L36.5500932,25.6973402 L30.1805495,25.6973402 L30.1805495,22.6323363 L38.2027311,22.6323363 L38.2027311,21.2739814 L30.1805495,21.2739814 L30.1805495,18.1044888 L28.0803224,18.1044888 L27.1851433,18.1741475 C27.1851433,18.1741475 26.2555345,18.383125 26.2555345,18.8010801 L26.2555345,21.2739814 L18.5087935,21.2739814 L18.5087935,22.6323363 L26.2555345,22.6323363 L26.2555345,25.6973402 L20.6778808,25.6973402 L20.6778808,27.0556943" id="path979" fill="#FFF"/><path d="M47.15452,18 L47.0856599,18.661762 L46.6380707,20.2987531 C46.6380707,20.2987531 46.156051,21.4133003 45.4330219,22.2840399 L45.4330219,37.9921873 L41.4735765,37.5045735 L41.4735765,25.0355782 C41.4735765,25.0355782 39.9930886,25.801829 38.7191804,26.2894435 L38.2027311,25.4535333 C38.2027311,25.4535333 39.5454994,24.5131343 40.888267,23.1896095 C40.888267,23.1896095 43.5393738,20.5077307 43.5393738,18.6965913 C43.5393738,18.6965913 43.5393738,18.2786362 44.4689827,18.0696587 L45.3641618,18 L47.15452,18" id="path981" fill="#FFF"/><path d="M46.0527612,24.0255197 L53.4896325,24.0255197 L53.4896325,38.514632 L57.449078,38.5842907 L57.449078,24.0255197 L59.5148754,24.0255197 L59.5148754,22.6323363 L57.449078,22.6323363 L57.449078,18 L55.3144204,18 L54.4192413,18.0696587 C54.4192413,18.0696587 53.4896325,18.2786362 53.4896325,18.6965913 L53.4896325,22.6323363 L46.0527612,22.6323363 L46.0527612,24.0255197" id="path983" fill="#FFF"/><path d="M28.045892,32.4542821 C28.045892,32.4542821 23.0191181,30.2251877 19.9204219,30.1206989 C19.9204219,30.1206989 17.3726049,29.9813808 15.2723773,31.479053 C15.2723773,31.479053 13.0688599,33.0463855 13,35.3799679 C13,35.3799679 13,38.0966761 15.1346575,39.6291784 C15.1346575,39.6291784 17.0971652,41.057192 20.2647215,41.057192 L20.5745909,41.057192 L20.0581417,41.0223626 C20.0581417,41.0223626 17.7513344,41.0223626 16.1331263,39.8729861 C16.1331263,39.8729861 14.3427685,38.5842907 14.3427685,36.4596858 C14.3427685,36.4596858 14.3427685,34.1609319 15.9265466,32.976726 C15.9265466,32.976726 17.269315,32.0014969 19.4384024,31.9666676 L22.5026687,32.3149633 L24.8783357,33.255363 L30.5592793,36.1810488 C30.5592793,36.1810488 34.4498646,38.235995 38.1683006,39.4898603 C38.1683006,39.4898603 51.1139655,43.8435596 80.0695609,40.9875325 L81.6189096,40.6740662 C81.6189096,40.6740662 82.1697887,40.4302593 82.6173779,39.6988379 C82.6173779,39.6988379 82.9961077,39.1067345 85.5783544,36.7731521 C85.5783544,36.7731521 87.4375743,35.0665016 86.8178336,34.5092283 L85.9226545,34.6485465 C85.9226545,34.6485465 76.4544154,36.8079814 62.0282627,37.4000848 C62.0282627,37.4000848 45.8117517,38.0618468 37.7895716,35.7282643 C37.7895716,35.7282643 32.2463476,34.1261026 28.045892,32.4542821" id="path985" fill="#EC6C00"/></g></g></svg>

<svg width="100" height="60" xmlns="http://www.w3.org/2000/svg"><g fill="none" fill-rule="evenodd"><rect fill="#003F96" width="100" height="60" rx="4"/><path d="M70.739 18l-.895.07s-.93.209-.93.627v1.393l-4.028.14v-.767h-1.86s-1.858.14-1.858.696v5.086h7.746v3.483h-5.336v1.393h5.336v7.976l3.96-.418V30.12h5.68v-1.393h-5.68v-3.483h6.68v-.697h.171s.517 0 .827-.836l.31-2.299s-.035-1.672-1.79-1.672l-6.198.21V18h-2.135zm6.129 3.204s.55-.035.585.558l-.276 2.124H64.886v-2.299l4.028-.104v.035l3.96-.174 3.994-.14z" fill="#FFF"/><path d="M46.673 28.728l1.273 1.497 1.48 1.324s.414.418.827 0l1.446-1.324 1.274-1.497s.448-.384 0-.871L51.7 26.394l-1.446-1.289s-.413-.418-.826 0l-1.446 1.289-1.308 1.463s-.38.487 0 .87m33.051 4.598s.241-.313 0-.662l-.998-1.114-1.102-.976s-.31-.313-.654 0l-1.102.976-.964 1.114s-.275.349 0 .662l.964 1.115 1.102.975s.344.348.654 0l1.102-.975.998-1.115" fill="#EC6C00"/><path d="M20.678 27.056h11.81s-.345 1.358-1.206 3.065c0 0-1.48 2.925-3.753 5.12 0 0-4.269 4.04-7.023 4.04 0 0-2.032 0-3.34-.766 0 0-1.618-1.01-1.618-3.1 0 0 0-2.752 4.166-3.553 0 0-2.686-.174-4.097 1.254 0 0-1.309 1.254-1.309 3.448 0 0 0 2.09 1.894 3.344 0 0 1.687 1.15 4.097 1.114l.551.035s4.683-.244 9.02-3.9c0 0 3.72-3.135 5.578-7.628 0 0 .586-1.394.896-2.787l.206-1.08v.035h-6.37v-3.065h8.023v-1.358H30.18v-3.17h-2.1l-.896.07s-.93.21-.93.627v2.473H18.51v1.358h7.747v3.065h-5.578v1.359M47.155 18l-.07.662-.447 1.637s-.482 1.114-1.205 1.985v15.708l-3.96-.487v-12.47s-1.48.767-2.754 1.254l-.516-.835s1.342-.94 2.685-2.264c0 0 2.651-2.682 2.651-4.493 0 0 0-.418.93-.627l.895-.07h1.79" fill="#FFF"/><path d="M46.053 24.026h7.437v14.489l3.96.07v-14.56h2.065v-1.393h-2.066V18h-2.135l-.895.07s-.93.209-.93.627v3.935h-7.436v1.394" fill="#FFF"/><path d="M28.046 32.454s-5.027-2.229-8.126-2.333c0 0-2.547-.14-4.648 1.358 0 0-2.203 1.567-2.272 3.901 0 0 0 2.717 2.135 4.25 0 0 1.962 1.427 5.13 1.427h.31l-.517-.035s-2.307 0-3.925-1.149c0 0-1.79-1.289-1.79-3.413 0 0 0-2.3 1.584-3.483 0 0 1.342-.976 3.511-1.01l3.065.348 2.375.94 5.681 2.926s3.89 2.055 7.61 3.309c0 0 12.945 4.354 41.9 1.498l1.55-.314s.55-.244.998-.975c0 0 .38-.592 2.961-2.926 0 0 1.86-1.706 1.24-2.264l-.895.14s-9.469 2.159-23.895 2.751c0 0-16.216.662-24.238-1.672 0 0-5.544-1.602-9.744-3.274" fill="#EC6C00"/></g></svg>
